usr/share/icons/biglinux-icons-material/scalable/apps/software-properties.svg

<svg xmlns="http://www.w3.org/2000/svg" xml:space="preserve" width="24" height="24" viewBox="0 0 6.35 6.35"><defs><linearGradient id="a" x1="12" x2="12" y1="0" y2="12" gradientTransform="translate(.75 .75) scale(.6875)" gradientUnits="userSpaceOnUse" spreadMethod="pad"><stop offset="0" style="stop-opacity:1;stop-color:#b8d5ff"/><stop offset="1" style="stop-opacity:1;stop-color:#6694ff"/></linearGradient></defs><path d="M7.195.836c.09 0 .176-.012.258-.035a23.86 23.86 0 0 1 3.231.008 10.26 10.26 0 0 1 2.836.636c1.519.625 2.558 1.711 3.121 3.254.316.93.507 1.887.566 2.867a21.227 21.227 0 0 1-.086 3.696 8.976 8.976 0 0 1-.672 2.488c-.637 1.383-1.672 2.336-3.101 2.859a11.693 11.693 0 0 1-3.575.618 15.998 15.998 0 0 1-4.089-.309c-2.481-.551-4.016-2.066-4.594-4.543a14.244 14.244 0 0 1-.336-3.383c-.027-1.215.101-2.41.387-3.59.609-2.312 2.078-3.746 4.406-4.3A10.27 10.27 0 0 1 7.195.836Z" style="fill:url(#a);fill-rule:evenodd;stroke:none" transform="scale(.35277)"/><path d="M7.84 15.367V11.5H5.906L9 8.406l3.094 3.094H10.16v3.867z" style="fill:#fff;fill-opacity:1;fill-rule:nonzero;stroke:none" transform="scale(.35277)"/><path d="M7.375 4.23a.94.94 0 1 0 0-1.882.938.938 0 0 0-.937.941c0 .52.417.941.937.941zM10.688 4.23a.938.938 0 0 0 .937-.941.938.938 0 1 0-1.879 0c0 .52.422.941.942.941z" style="fill:#6694ff;fill-opacity:1;fill-rule:nonzero;stroke:none" transform="scale(.35277)"/><path d="M10.684 3.383v.883a1.663 1.663 0 0 1-.496 1.164 1.662 1.662 0 0 1-1.168.472 1.661 1.661 0 0 1-1.172-.472 1.655 1.655 0 0 1-.493-1.164v-.883" style="fill:none;stroke:#fff;stroke-width:.6875;stroke-linecap:round;stroke-linejoin:round;stroke-miterlimit:4;stroke-dasharray:none;stroke-opacity:1" transform="scale(.35277)"/></svg>

<?xml version="1.0" encoding="UTF-8" standalone="no"?>
<svg
   width="24"
   height="24"
   viewBox="0 0 6.349875 6.349875"
   version="1.1"
   id="svg420"
   sodipodi:docname="cs-software-properties.svg"
   xml:space="preserve"
   inkscape:version="1.2.2 (b0a8486541, 2022-12-01)"
   xmlns:inkscape="http://www.inkscape.org/namespaces/inkscape"
   xmlns:sodipodi="http://sodipodi.sourceforge.net/DTD/sodipodi-0.dtd"
   xmlns="http://www.w3.org/2000/svg"
   xmlns:svg="http://www.w3.org/2000/svg"><sodipodi:namedview
     id="namedview422"
     pagecolor="#ffffff"
     bordercolor="#000000"
     borderopacity="0.25"
     inkscape:showpageshadow="2"
     inkscape:pageopacity="0.0"
     inkscape:pagecheckerboard="0"
     inkscape:deskcolor="#d1d1d1"
     showgrid="false"
     inkscape:zoom="4.8282135"
     inkscape:cx="92.787943"
     inkscape:cy="21.4365"
     inkscape:window-width="2560"
     inkscape:window-height="1000"
     inkscape:window-x="1680"
     inkscape:window-y="0"
     inkscape:window-maximized="1"
     inkscape:current-layer="svg420" /><defs
     id="defs404"><filter
       id="c"
       x="-0.08088189"
       y="-0.16176378"
       width="1.1617638"
       height="1.3235276"
       color-interpolation-filters="sRGB"><feGaussianBlur
         stdDeviation=".214"
         id="feGaussianBlur395" /></filter><filter
       id="b"
       x="-0.11297998"
       y="-0.10355905"
       width="1.22596"
       height="1.2071181"
       color-interpolation-filters="sRGB"><feGaussianBlur
         stdDeviation=".548"
         id="feGaussianBlur398" /></filter><clipPath
       id="a"><rect
         x="1.587"
         y="2.6459999"
         width="13.758"
         height="12.7"
         rx="0.79400003"
         ry="0.79400003"
         fill="#ececec"
         opacity="0.8"
         stroke-linecap="round"
         stroke-linejoin="round"
         stroke-width="0.37"
         style="paint-order:stroke fill markers"
         id="rect401" /></clipPath><filter
       id="c-3"
       x="-0.080881894"
       y="-0.16176379"
       width="1.1617638"
       height="1.3235276"
       color-interpolation-filters="sRGB"><feGaussianBlur
         stdDeviation=".214"
         id="feGaussianBlur1485" /></filter><filter
       id="b-6"
       x="-0.11297998"
       y="-0.10355905"
       width="1.22596"
       height="1.2071182"
       color-interpolation-filters="sRGB"><feGaussianBlur
         stdDeviation=".548"
         id="feGaussianBlur1488" /></filter><clipPath
       id="a-7"><rect
         x="1.587"
         y="2.6459999"
         width="13.758"
         height="12.7"
         rx="0.79400003"
         ry="0.79400003"
         fill="#ececec"
         opacity="0.8"
         stroke-linecap="round"
         stroke-linejoin="round"
         stroke-width="0.37"
         style="paint-order:stroke fill markers"
         id="rect1491" /></clipPath><linearGradient
       id="paint0_linear_14_2"
       x1="12"
       y1="0"
       x2="12"
       y2="12"
       gradientUnits="userSpaceOnUse"
       gradientTransform="matrix(0.24252996,0,0,0.24252996,0.26457741,0.26457817)"><stop
         stop-color="#C7CEFF"
         id="stop1647"
         offset="0"
         style="stop-color:#b8d5ff;stop-opacity:1;" /><stop
         offset="1"
         stop-color="#6C7AD8"
         id="stop1649"
         style="stop-color:#6694ff;stop-opacity:1;" /></linearGradient><linearGradient
       x1="12"
       y1="0"
       x2="12"
       y2="12"
       gradientUnits="userSpaceOnUse"
       gradientTransform="matrix(0.6875,0,0,0.6875,0.749998,0.75)"
       spreadMethod="pad"
       id="linearGradient4207"><stop
         style="stop-opacity:1;stop-color:#b8d5ff"
         offset="0"
         id="stop4203" /><stop
         style="stop-opacity:1;stop-color:#6694ff"
         offset="1"
         id="stop4205" /></linearGradient></defs><g
     id="g598"
     transform="translate(20.546014,-2.250099)"><g
       id="g4191"
       transform="matrix(0.35277082,0,0,0.35277082,-20.546134,2.2500898)"><g
         id="g4193"><g
           id="g4195"><g
             id="g4201"><path
               d="m 7.195,0.836 c 0.09,0 0.176,-0.012 0.258,-0.035 1.078,-0.071 2.156,-0.067 3.231,0.008 0.976,0.078 1.921,0.289 2.836,0.636 1.519,0.625 2.558,1.711 3.121,3.254 0.316,0.93 0.507,1.887 0.566,2.867 0.078,1.235 0.051,2.465 -0.086,3.696 -0.105,0.863 -0.328,1.691 -0.672,2.488 -0.637,1.383 -1.672,2.336 -3.101,2.859 C 12.191,17 11,17.207 9.773,17.227 8.398,17.301 7.035,17.195 5.684,16.918 3.203,16.367 1.668,14.852 1.09,12.375 0.844,11.262 0.73,10.133 0.754,8.992 0.727,7.777 0.855,6.582 1.141,5.402 1.75,3.09 3.219,1.656 5.547,1.102 6.09,0.969 6.641,0.879 7.195,0.836 Z"
               style="fill:url(#linearGradient4207);fill-rule:evenodd;stroke:none"
               id="path4209" /></g></g></g><path
         d="M 7.84,15.367 V 11.5 H 5.906 L 9,8.406 12.094,11.5 H 10.16 v 3.867 z"
         style="fill:#ffffff;fill-opacity:1;fill-rule:nonzero;stroke:none"
         id="path4211" /><path
         d="m 7.375,4.23 c 0.52,0 0.941,-0.421 0.941,-0.941 0,-0.519 -0.421,-0.941 -0.941,-0.941 -0.52,0 -0.937,0.422 -0.937,0.941 0,0.52 0.417,0.941 0.937,0.941 z"
         style="fill:#6694ff;fill-opacity:1;fill-rule:nonzero;stroke:none"
         id="path4213" /><path
         d="m 10.688,4.23 c 0.519,0 0.937,-0.421 0.937,-0.941 0,-0.519 -0.418,-0.941 -0.937,-0.941 -0.52,0 -0.942,0.422 -0.942,0.941 0,0.52 0.422,0.941 0.942,0.941 z"
         style="fill:#6694ff;fill-opacity:1;fill-rule:nonzero;stroke:none"
         id="path4215" /><g
         id="g4217"><path
           d="M 10.684,3.383 V 4.266 C 10.68,4.703 10.5,5.121 10.188,5.43 9.875,5.734 9.453,5.906 9.02,5.902 8.582,5.906 8.16,5.734 7.848,5.43 7.535,5.121 7.359,4.703 7.355,4.266 V 3.383"
           style="fill:none;stroke:#ffffff;stroke-width:0.6875;stroke-linecap:round;stroke-linejoin:round;stroke-miterlimit:4;stroke-dasharray:none;stroke-opacity:1"
           id="path4219" /></g></g></g></svg>
